X: 10137
T: Din Tarrant's
R: polka
M: 2/4
K: Gmajor
G2 G>A|B>A B<d|G2 G>A|Bd A2|
G2 G>A|B>A B<d|(3efg d>c|BG G2:|
Bd de/f/|gd ed|Bd de/f/|gB A2|
Bd de/f/|gd ed|(3efg d>c|BG G2:|

